X: 3128
T: MISS TAYLOR
Q: "Reel."
R: Reel.
%R: reel
B: James Kerr "Merry Melodies" v.3 p.15 #128
Z: 2016 John Chambers <jc:trillian.mit.edu>
M: C
L: 1/8
K: C
|:\
vcdcB cdef | (gf)ed (cB)AG |\
cEGc EcGc |[1 dDdc cBAG :|\
[2 dDdB [c2E2][c2E2] ||
|:\
CEGc ecGE | FAde fdBG |\
[1 cege agfe | fAdc cBAG :|\
[2 geag fedc | BFdB [c2E2][c2E2] |]

%%sep 1 1 500
%%sep 1 1 500

